64x64/apps/key-mon.svg

<svg xmlns="http://www.w3.org/2000/svg" width="64" height="64" version="1">
 <rect style="fill:#4f4f4f" width="56" height="40" x="4" y="12" rx="2.8" ry="2.8"/>
 <circle style="opacity:.2" cx="11" cy="22" r="3"/>
 <circle style="opacity:.2" cx="21" cy="22" r="3"/>
 <circle style="opacity:.2" cx="31" cy="22" r="3"/>
 <circle style="opacity:.2" cx="41" cy="22" r="3"/>
 <circle style="opacity:.2" cx="51" cy="22" r="3"/>
 <circle style="opacity:.2" cx="17" cy="34" r="3"/>
 <circle style="opacity:.2" cx="27" cy="34" r="3"/>
 <circle style="opacity:.2" cx="37" cy="34" r="3"/>
 <circle style="opacity:.2" cx="47" cy="34" r="3"/>
 <rect style="opacity:.2" width="40" height="6" x="12" y="43" rx="1.5" ry="1.5"/>
 <circle style="fill:#f4f4f7" cx="11" cy="21" r="3"/>
 <circle style="fill:#f4f4f7" cx="21" cy="21" r="3"/>
 <circle style="fill:#f4f4f7" cx="31" cy="21" r="3"/>
 <circle style="fill:#f4f4f7" cx="41" cy="21" r="3"/>
 <circle style="fill:#f4f4f7" cx="51" cy="21" r="3"/>
 <circle style="fill:#f4f4f7" cx="17" cy="33" r="3"/>
 <circle style="fill:#f4f4f7" cx="27" cy="33" r="3"/>
 <circle style="fill:#f4f4f7" cx="37" cy="33" r="3"/>
 <circle style="fill:#f4f4f7" cx="47" cy="33" r="3"/>
 <rect style="fill:#f4f4f7" width="40" height="6" x="12" y="42" rx="1.5" ry="1.5"/>
 <path style="opacity:.1;fill:#f4f4f7" d="m6.8008 12c-1.5512 0-2.8008 1.25-2.8008 2.801v1c0-1.551 1.2496-2.801 2.8008-2.801h50.398c1.551 0 2.801 1.25 2.801 2.801v-1c0-1.551-1.25-2.801-2.801-2.801h-50.398z"/>
 <path style="opacity:.2" d="m4 49.199v1c0 1.551 1.2496 2.801 2.8008 2.801h50.398c1.551 0 2.801-1.25 2.801-2.801v-1c0 1.551-1.25 2.801-2.801 2.801h-50.398c-1.5514 0-2.801-1.25-2.801-2.801z"/>
 <circle style="fill:#f57f17" cx="48" cy="46" r="16"/>
 <path style="fill:#f4f4f7" d="m48 40c-4 0-8 2-10 6 2 4 6 6 10 6s8-2 10-6c-2-4-6-6-10-6zm0 2c2.1872-0.000006 3.9953 1.8139 4 3.9961v0.004c-0.000489 2.1851-1.8146 4-4 4-2.184 0.000002-3.9973-1.8127-4-3.9961v-0.004c-0.0016-2.1862 1.8178-4 4-4zm0 2c-1.1059-0.000002-2.0019 0.89383-2 2 0.000247 1.1046 0.8956 2 2 2 1.1044 0.000001 1.9998-0.89536 2-2-0.0024-1.1031-0.89713-2-2-2z"/>
 <path style="opacity:.2" d="m63.979 46.42a16 16 0 0 1 -15.979 15.58 16 16 0 0 1 -15.979 -15.42 16 16 0 0 0 -0.021 0.42 16 16 0 0 0 16 16 16 16 0 0 0 16 -16 16 16 0 0 0 -0.021 -0.58z"/>
</svg>

<svg xmlns="http://www.w3.org/2000/svg" width="64" height="64" version="1"><rect style="fill:#4f4f4f" width="56" height="40" x="4" y="12" rx="2.8" ry="2.8"/><circle style="opacity:.2" cx="11" cy="22" r="3"/><circle style="opacity:.2" cx="21" cy="22" r="3"/><circle style="opacity:.2" cx="31" cy="22" r="3"/><circle style="opacity:.2" cx="41" cy="22" r="3"/><circle style="opacity:.2" cx="51" cy="22" r="3"/><circle style="opacity:.2" cx="17" cy="34" r="3"/><circle style="opacity:.2" cx="27" cy="34" r="3"/><circle style="opacity:.2" cx="37" cy="34" r="3"/><circle style="opacity:.2" cx="47" cy="34" r="3"/><rect style="opacity:.2" width="40" height="6" x="12" y="43" rx="1.5" ry="1.5"/><circle style="fill:#f4f4f7" cx="11" cy="21" r="3"/><circle style="fill:#f4f4f7" cx="21" cy="21" r="3"/><circle style="fill:#f4f4f7" cx="31" cy="21" r="3"/><circle style="fill:#f4f4f7" cx="41" cy="21" r="3"/><circle style="fill:#f4f4f7" cx="51" cy="21" r="3"/><circle style="fill:#f4f4f7" cx="17" cy="33" r="3"/><circle style="fill:#f4f4f7" cx="27" cy="33" r="3"/><circle style="fill:#f4f4f7" cx="37" cy="33" r="3"/><circle style="fill:#f4f4f7" cx="47" cy="33" r="3"/><rect style="fill:#f4f4f7" width="40" height="6" x="12" y="42" rx="1.5" ry="1.5"/><path style="opacity:.1;fill:#f4f4f7" d="M6.8 12C5.25 12 4 13.25 4 14.801v1A2.796 2.796 0 0 1 6.8 13H57.2a2.796 2.796 0 0 1 2.8 2.801v-1A2.796 2.796 0 0 0 57.2 12H6.8z"/><path style="opacity:.2" d="M4 49.199v1A2.796 2.796 0 0 0 6.8 53H57.2a2.796 2.796 0 0 0 2.8-2.801v-1A2.796 2.796 0 0 1 57.2 52H6.8A2.796 2.796 0 0 1 4 49.199z"/><circle style="fill:#f57f17" cx="48" cy="46" r="16"/><path style="fill:#f4f4f7" d="M48 40c-4 0-8 2-10 6 2 4 6 6 10 6s8-2 10-6c-2-4-6-6-10-6zm0 2c2.187 0 3.995 1.814 4 3.996V46c0 2.185-1.815 4-4 4-2.184 0-3.997-1.813-4-3.996V46c-.002-2.186 1.818-4 4-4zm0 2a2 2 0 1 0 0 4 2 2 0 0 0 0-4z"/><path style="opacity:.2" d="M63.979 46.42A16 16 0 0 1 48 62a16 16 0 0 1-15.979-15.42A16 16 0 0 0 32 47a16 16 0 0 0 16 16 16 16 0 0 0 16-16 16 16 0 0 0-.021-.58z"/></svg>
